!!!COM: Palestrina, Giovanni Perluigi da
!!!OPR: Missa In festis Apostolorum (II)
!!!OMD: Credo
!!!OTL: Et vitam
**kern	**kern	**kern	**kern	**kern
*Ibass	*Itenor	*Itenor	*Icalto	*Icant
!Bassus	!Tenor 2	!Tenor 1	!Altus	!Cantus
*clefF4	*clefGv2	*clefGv2	*clefG2	*clefG2
*k[]	*k[]	*k[]	*k[]	*k[]
*D:dor	*D:dor	*D:dor	*D:dor	*D:dor
*M4/2	*M4/2	*M4/2	*M4/2	*M4/2
=188	=188	=188	=188	=188
2r	1A	0r	0r	0r
2AA	.	.	.	.
2BB	1G	.	.	.
2C	.	.	.	.
=189	=189	=189	=189	=189
1D	1F	2r	0r	1a
.	.	2A	.	.
1r	1E	2B	.	1g
.	.	2c	.	.
=190	=190	=190	=190	=190
2r	0r	1d	2r	1f
2F	.	.	2A	.
2G	.	1r	2B	1e
2A	.	.	2c	.
=191	=191	=191	=191	=191
1D	2r	2r	1d	1f
.	2F	2A	.	.
2r	2G	2B	1r	1e
2AA	2A	2c	.	.
=192	=192	=192	=192	=192
2BB	2D	2d	1r	2d
2C	2.G	2c	.	1e
1D	.	1A	1a	.
.	8F	.	.	.
.	8E	.	.	.
.	2F	.	.	[2d
=193	=193	=193	=193	=193
2.E	1G	1r	1g	2d]
.	.	.	.	2c#
4E	.	.	.	.
1D	1r	2r	1f	2d
.	.	2F	.	2a
=194	=194	=194	=194	=194
1r	1r	2G	1e	2b
.	.	2A	.	2cc
2r	2r	1D	1f	1dd
2F	2A	.	.	.
=195	=195	=195	=195	=195
2G	2B	1r	1e	2r
2A	2c	.	.	2a
2D	2d	1A	2d	2a
2C#	[2A	.	[2e	2a
=196	=196	=196	=196	=196
1D	4A]	2.F	2e]	1.a
.	4G	.	.	.
.	2F	.	1d	.
.	.	4G	.	.
1AA	2E	2A	.	.
.	2E	2A	2c#	2e
=197	=197	=197	=197	=197
[0D	[0D	[0A	[0d	[0f#
=198	=198	=198	=198	=198
0D]	0D]	0A]	0d]	0f#]
=199	=199	=199	=199	=199
2r	0r	0r	1c	0r
2A	.	.	.	.
2G	.	.	1d	.
2F	.	.	.	.
=200	=200	=200	=200	=200
4E	0r	1r	1e	1r
4F	.	.	.	.
4G	.	.	.	.
4E	.	.	.	.
2F	.	2r	1A	1f
2D	.	2d	.	.
=201	=201	=201	=201	=201
1E	0r	2c	0r	1g
.	.	2B	.	.
1F	.	4A	.	1a
.	.	4B	.	.
.	.	4c	.	.
.	.	4A	.	.
=202	=202	=202	=202	=202
1G	1r	2B-	1r	0d
.	.	2G	.	.
1D	1F	1A	2r	.
.	.	.	2f	.
=203	=203	=203	=203	=203
2C	1G	1r	2e	0r
2BB	.	.	2d	.
4AA	1A	2r	4c	.
4BB	.	.	4d	.
4C	.	2A	4e	.
4AA	.	.	4c	.
=204	=204	=204	=204	=204
2BB-	1D	2F	2d	1r
2GG	.	2G	2B-	.
1D	1F	1A	2A	2r
.	.	.	2f	2a
=205	=205	=205	=205	=205
1r	1G	0r	2e	2g
.	.	.	1d	2f
2r	1A	.	.	2.e
2AA	.	.	2c	.
.	.	.	.	4f
=206	=206	=206	=206	=206
2BB	1G	2r	2d	1g
2C	.	2c	2e	.
1D	1F	2A	1d	1r
.	.	2B	.	.
=207	=207	=207	=207	=207
1C	1E	4c	2g	2r
.	.	4A	.	.
.	.	1c	2e	2g
2r	1D	.	2f	2a
2GG	.	2B	2g	2b
=208	=208	=208	=208	=208
1AA	1C	2.A	2f	2cc
.	.	.	2.e	2.a
.	.	4G	.	.
1BB-	1D	2F	.	.
.	.	.	4d	8g
.	.	.	.	8f
.	.	2D	[2d	2g
=209	=209	=209	=209	=209
0AA	0E	0A	2d]	0a
.	.	.	4c#	.
.	.	.	4B	.
.	.	.	1c#	.
=210	=210	=210	=210	=210
[0D	[0D	[0A	[0d	[0f#
=211	=211	=211	=211	=211
0D]	0D]	0A]	0d]	0f#]
==	==	==	==	==
*-	*-	*-	*-	*-
!!!CDT: 1525/^1526/-1594/2/2
!!!OCY: Italia
!!!AGN: Mass (Paraphrase)
!!!AST: renaissance, vocal
!!!ASW: Gregorian Mass
!!!PWK: Masses, Book Mantuan II
!!!RNB: Cadence finals: A
!!!YOR: Le Opere Complete, v. 19, p. 1
!!!YOO: Rome, Italy: Fratelli Scalera
!!!END: 1992//
!!!EED: John Miller
!!!YEC: Copyright 2000, John Miller
!!!YEN: United States of America
!!!YEM: Rights to all derivative electronic formats reserved.
!!!YEM: Refer to licensing agreement for further details.
!!!YEM: This file must be accompanied by the licensing agreement.
!!!YEM: A copy of the licensing agreement may be found at http://www.music-cog.ohio-state.edu/HumdrumDatabases/Palestrina/license.txt
!!!EMD: converted to Humdrum by Bret Aarden
